X:80
T: DIE GULDNE SCHNUR GIEHT UM DAS HAUS
N: K1612
O: Europa, Mitteleuropa, Deutschland, Schweidnitz
R: Kinder -, Ansinge - Lied, Bettel - Reim
M: 2/4
L: 1/16
K: G
G2 | d2d2d2e2 | d2B2G2
G2 | d2d2d2e2 | d2B2G2
B2 | d2d2d2e2 | d4B2
B2 | d2d2d2e2 | d4B2
G2 | d2d2d2e2 | d2B2G2
G2 | d2d2d2e2 | d2B2G2
B2 | ddd2dde2 | d2B2G2z2
B4e2e2 | d4z2
d2 | c2c2B2B2 | A2A2G2

